X: 1473
T: On The River Bank
R: reel
B: O'Neill's 1850 #1473
O: Stack
Z: Bob Safranek, rjs@gsp.org
Z: Compacted via repeats and multiple endings [JC]
M: C|
L: 1/8
K: G
|: d^cAF G2(GF) | DEFG ABcA | d^cAF GBAF |1 DEFG ABcA :|2 DFAc BGG2 |]
K: D
|: Addc d2cd | efcd efge |1 fgef d2(dc) | AGFG ABcB :|2 faef d2(dc) | Aceg fdd2 |]
